X: 5
T: Arkansas Traveler, The
C: Trad.
O:USA
S: http://thesession.org/tunes/5583
R: reel
M: 4/4
L: 1/8
Q:1/4=220
K: Dmajor
B,C | "D"DFED "G"B,2B,2 | "D"A,2A,2 "G"D4 | "A"E2E2 "D"F2F2 | "A"EFED "D"B,2A,2 | \
"D"DFED "G"B,2B,2  | "D"A,2A,2 "G"D4 | "D"dcdA "G"BdAG | "A"FDEC "D"D2 :|
fg| "D"agfa "Em"gfeg | "D"fedf "A"edce | "D"dcdf "A7"edeg |"D"fedf "A7"e2fg | \
"D"agfa "Em"gfeg | "D"fedf "A"edce | "D"dcdA "G"BdAG | "A7"FDEC "D"D2 :|

